X: 1
T:Once Upon My Cheek -- Reel
M:2/4
L:1/16
R:reel
B:Ryan's Mammoth Collection
Z:Contributed by Ray Davies,  ray:davies99.freeserve.co.uk
K:A
u((3EFG)|A2A2 AcBd|c2c2 cedf|eagf edcB|Acea gfdB|
A2A2 AcBd|c2c2 cedf|eagf edcB|A2A2A2::
ed|ceae ceae|dfaf dfaf|egbg egbg|eac'a eac'a|
ceae ceae|dfaf dfaf|egbg egbg|a2a2a2:|
